!!!COM: Schubert, Franz
!!!CNT: Deutscher
!!!TXO: Deutsch
!!!OTL: "Der Lindenbaum"
!!!OPR: Winterreise
!!!LYR: Mu2ller, Wilhelm
!!!OPS: Opus 89
!!!ONM: No. 5
!!!ODT: 1827/
!!NB: Vocal melody only encoded.
**kern	**silbe
*clefG2	*
*k[f#c#g#d#]	*
*M3/4	*
*MM[massig]	*
=8	=8
4r	.
4r	.
8r	.
{8b	{Am
=9	=9
4.b	Brun-
8g#	-nen
8g#	vor
8g#	dem
=10	=10
4g#	Tho-
4e	-re
8r	.
8e	da
=11	=11
4.f#	steht
8g#	ein
12a	Lin-
12g#	|
12f#	-den-
=12	=12
2e}	-baum;}
8r	.
{8b	{ich
=13	=13
4.b	tra2umt'
8g#	in
8g#	sei-
8g#	-nem
=14	=14
4g#	Schatt-
4e	-en
8r	.
8e	so
=15	=15
4.f#	man-
8g#	-chen
12a	su2-
12g#	|
12f#	-ssen
=16	=16
2e}	Traum.}
8r	.
{8e	{Ich
=17	=17
4.f#	schnitt
8f#	in
8f#	sei-
8f#	-ne
=18	=18
8.g#	Rin-
16a	|
4.b	-de
8b	so
=19	=19
4.cc#	man-
8b	-ches
8g#	lie-
8e	-be
=20	=20
2f#}	Wort;}
8r	.
{8f#	{es
=21	=21
4.f#	zog
8f#	in
8f#	Freund'
8f#	und
=22	=22
8.g#	Lei-
16a	|
4b	-de
8r	.
8b	zu
=23	=23
(4ee	ihm
8b)	|
8g#	mich
8.a	im-
16f#	-mer
=24	=24
2e}	fort.}
4r	.
=28	=28
*k[f#cngndn]	*
4r	.
4r	.
8r	.
{8b	{Ich
=29	=29
4.b	musst'
8g	auch
8.g	heu-
16g	-te
=30	=30
4g	wan-
4e	-dern
8r	.
8e	vor-
=31	=31
4.f#	-bei
8g	in
12a	tie-
12g	|
12f#	-fer
=32	=32
2e}	Nacht,}
8r	.
{8b	{da
=33	=33
4.b	hab'
8g	ich
8g	noch
8g	im
=34	=34
4g	Dun-
4e	-kel
8r	.
8e	die
=35	=35
4.f#	Au-
8g	-gen
12a	zu-
12g	|
12f#	-ge-
=36	=36
2e}	-macht.}
8r	.
{8e	{Und
=37	=37
*k[f#c#g#d#]	*
4.f#	sei-
8f#	-ne
8f#	Zwei-
8f#	-ge
=38	=38
8.g#	rausch-
16a	|
4b	-ten,
8r	.
8b	als
=39	=39
4.cc#	rie-
8b	-fen
8g#	sie
8e	mir
=40	=40
2f#}	zu:}
8r	.
{8f#	{komm
=41	=41
4.f#	her
8f#	zu
8f#	mir,
8f#	Ge-
=42	=42
8.g#	-sel-
16a	|
4b	-le,
8r	.
8b	hier
=43	=43
(4ee	find'st
8b)	|
8g#	du
8.a	dei-
16f#	-ne
=44	=44
2e}	Ruh!}
4r	.
=45	=45
4r	.
4r	.
8r	.
{8f#	{Die
=46	=46
4.f#	kal-
8f#	-ten
8f#	Win-
8a	-de
=47	=47
4gn	blie-
4e	-sen
8r	.
8e	mir
=48	=48
4.f#	grad'
8f#	in's
8.b	An-
16a	-ge-
=49	=49
2gn}	-sicht,}
8r	.
{8b	{der
=50	=50
4.ccn	Hut
8b	flog
8ccn	mir
8b	vom
=51	=51
4ccn	Kop-
4cn	-fe,
8r	.
8cn	ich
=52	=52
4.cn	wen-
8cn	-de-
8cn	-te
8cn	mich
=53	=53
2B}	nicht.}
4r	.
=58	=58
4r	.
4r	.
8r;	.
{8b	{Nun
=59	=59
4.b	bin
8g#	ich
8g#	man-
8g#	-che
=60	=60
4g#	Stun-
4e	-de
8r	.
8e	ent-
=61	=61
4.f#	-fernt
8g#	von
12a	je-
12g#	|
12f#	-nem
=62	=62
2e}	Ort,}
8r	.
{8b	{und
=63	=63
4.b	im-
8g#	-mer
8g#	ho2r'
8g#	ichs
=64	=64
4g#	rau-
4e	-schen:
8r	.
8e	du
=65	=65
4.g#	fa2n-
8g#	-dest
12a	Ru-
12g#	|
12f#	-he
=66	=66
2e}	dort!}
8r	.
{8e	{Nun
=67	=67
4.f#	bin
8f#	ich
8f#	man-
8f#	-che
=68	=68
8.g#	Stun-
16a	|
8b	-de
8r	.
8r	.
8b	ent-
=69	=69
4.cc#	-fernt
8b	von
8g#	jen-
8e	-em
=70	=70
2f#}	Ort,}
8r	.
{8f#	{und
=71	=71
4.f#	im-
8f#	-mer
8f#	ho2r'
8f#	ich's
=72	=72
8.g#	rau-
16a	|
4b	-schen:
8r	.
8b	du
=73	=73
(4ee	fa2n-
8b)	|
8g#	-dest
8a	Ru-
8f#	-he
=74	=74
2b	dort,
8r	.
8b	du
=75	=75
(4ee	fa2n-
8b)	|
8g#	-dest
12b	Ru-
12a	|
12f#	-he
=76	=76
2e}	dort!}
4r	.
*-	*-
